Newaita-dark/apps/48/qt4logo.svg

<svg height="48pt" viewBox="0 0 48 48" width="48pt" xmlns="http://www.w3.org/2000/svg" xmlns:xlink="http://www.w3.org/1999/xlink"><linearGradient id="a"><stop offset="0" stop-opacity=".313726"/><stop offset=".222222" stop-opacity=".27451"/><stop offset="1" stop-opacity="0"/></linearGradient><radialGradient id="b" cx="450.908936" cy="189.579361" gradientTransform="matrix(.00000026 -.117199 -.210958 -.00000015 66.784728 95.392994)" gradientUnits="userSpaceOnUse" r="21.166656" xlink:href="#a"/><radialGradient id="c" cx="450.908936" cy="189.579361" gradientTransform="matrix(-.00000026 .117199 .210958 .00000015 -19.155178 -11.291223)" gradientUnits="userSpaceOnUse" r="21.166656" xlink:href="#a"/><radialGradient id="d" cx="450.908936" cy="189.579361" gradientTransform="matrix(-.00000026 -.117199 .210958 -.00000015 -19.155178 95.392994)" gradientUnits="userSpaceOnUse" r="21.166656" xlink:href="#a"/><radialGradient id="e" cx="450.908936" cy="189.579361" gradientTransform="matrix(.00000026 .117199 -.210958 .00000015 66.784725 -11.291224)" gradientUnits="userSpaceOnUse" r="21.166656" xlink:href="#a"/><linearGradient id="f" gradientTransform="matrix(.0200401 0 0 .093759 18.698079 20.158175)" gradientUnits="userSpaceOnUse" x1="255.323059" x2="255.323044" y1="233.5" y2="254.666656"><stop offset="0" stop-opacity=".27451"/><stop offset="1" stop-opacity="0"/></linearGradient><linearGradient id="g" gradientUnits="userSpaceOnUse" x1="254" x2="254" y1="-168.666672" y2="233.5"><stop offset="0" stop-color="#66bb6a"/><stop offset="1" stop-color="#4caf50"/></linearGradient><path d="m27.289062 42.050781h3.96875v-1.984375h-3.96875zm0 0" fill="url(#b)"/><path d="m20.339844 42.050781h-3.96875v1.984375h3.96875zm0 0" fill="url(#c)"/><path d="m20.339844 42.050781h-3.96875v-1.984375h3.96875zm0 0" fill="url(#d)"/><path d="m27.289062 42.050781h3.96875v1.984375h-3.96875zm0 0" fill="url(#e)"/><path d="m20.339844 41.554688h6.949218v2.480468h-6.949218zm0 0" fill="url(#f)"/><path d="m254.017409-168.671091c111.031064 0 201.064133 90.033069 201.064133 201.105795 0 111.031064-90.033069 201.064133-201.064133 201.064133-111.072726 0-201.105795-90.033069-201.105795-201.064133 0-111.072726 90.033069-201.105795 201.105795-201.105795zm0 0" fill="url(#g)" stroke="#333" stroke-linecap="round" stroke-width="3" transform="matrix(.093759 0 0 .093759 0 20.158175)"/><path d="m23.816406 42.050781c-10.445312 0-18.855468-8.410156-18.855468-18.851562 0-.0625 0-.125 0-.1875.101562 10.359375 8.472656 18.667969 18.855468 18.667969 10.382813 0 18.753906-8.308594 18.851563-18.667969v.1875c0 10.441406-8.410157 18.851562-18.851563 18.851562zm0 0" fill-opacity=".196078"/><path d="m23.816406 4.34375c-10.445312 0-18.855468 8.410156-18.855468 18.855469v.183593c.101562-10.359374 8.472656-18.667968 18.855468-18.667968 10.382813 0 18.753906 8.308594 18.851563 18.667968 0-.0625 0-.125 0-.183593 0-10.445313-8.410157-18.855469-18.851563-18.855469zm0 0" fill="#fff" fill-opacity=".392157"/><path d="m23.816406 4.203125c-10.523437 0-18.996094 8.472656-18.996094 18.996094 0 10.519531 8.472657 18.992187 18.996094 18.992187 10.519532 0 18.992188-8.472656 18.992188-18.992187 0-10.523438-8.472656-18.996094-18.992188-18.996094zm0 .28125c10.367188 0 18.710938 8.34375 18.710938 18.714844 0 10.367187-8.34375 18.710937-18.710938 18.710937-10.371094 0-18.714844-8.34375-18.714844-18.710937 0-10.371094 8.34375-18.714844 18.714844-18.714844zm0 0" fill="#212121"/><path d="m17.859375 19.429688c-1.394531 0-2.46875 1.074218-2.46875 2.472656v1.089844c0-1.394532 1.074219-2.46875 2.46875-2.46875 1.398437 0 2.472656 1.074218 2.472656 2.46875v-1.089844c0-1.398438-1.074219-2.472656-2.472656-2.472656zm-5.464844 4.457031v1.089843c0 3.003907 2.464844 5.46875 5.464844 5.46875.890625 0 1.730469-.214843 2.472656-.597656v-1.089844c-.742187.378907-1.582031.59375-2.472656.59375-3 0-5.464844-2.464843-5.464844-5.464843zm7.9375 11.90625v1.09375c-.007812.539062.277344 1.039062.742188 1.308593.46875.273438 1.042969.273438 1.511719 0 .464843-.269531.75-.769531.742187-1.308593v-1.09375c.007813.539062-.277344 1.039062-.742187 1.3125-.46875.269531-1.042969.269531-1.511719 0-.464844-.273438-.75-.773438-.742188-1.3125zm0 0" fill-opacity=".235294"/><path d="m17.859375 16.738281c-3 0-5.464844 2.464844-5.464844 5.46875v1.984375c0 3 2.464844 5.464844 5.464844 5.464844.890625 0 1.730469-.214844 2.472656-.59375v7.035156c-.007812.539063.277344 1.039063.742188 1.3125.46875.269532 1.042969.269532 1.511719 0 .464843-.273437.75-.773437.742187-1.3125v-13.890625c0-3.003906-2.464844-5.46875-5.46875-5.46875zm0 2.996094c1.398437 0 2.472656 1.074219 2.472656 2.472656v1.984375c0 1.394532-1.074219 2.46875-2.472656 2.46875-1.394531 0-2.46875-1.074218-2.46875-2.46875v-1.984375c0-1.398437 1.074219-2.472656 2.46875-2.472656zm0 0" fill="#e0e0e0"/><path d="m33.160156 16.496094c-.226562.578125-.785156.953125-1.40625.949218h-4.457031v1.089844h4.457031c.496094.007813.964844-.234375 1.246094-.644531s.34375-.933594.160156-1.394531zm-8.859375.328125c-.019531.144531-.019531.289062 0 .429687zm0 6.070312v1.089844c0 2.234375.582031 3.933594 1.671875 5.042969 1.09375 1.105468 2.542969 1.457031 3.796875 1.457031 1.25 0 2.703125-.351563 3.792969-1.457031.425781-.421875.558594-1.054688.34375-1.613282-.078125.195313-.195312.371094-.34375.519532-1.089844 1.105468-2.542969 1.457031-3.792969 1.457031-1.253906 0-2.703125-.351563-3.796875-1.457031-1.089844-1.105469-1.671875-2.804688-1.671875-5.039063zm0 0" fill-opacity=".235294"/><path d="m17.859375 16.738281c-3 0-5.464844 2.464844-5.464844 5.46875v1c0-3.003906 2.464844-5.46875 5.464844-5.46875 3.003906 0 5.46875 2.464844 5.46875 5.46875v-1c0-3.003906-2.464844-5.46875-5.46875-5.46875zm-2.46875 7.453125v1c0 1.394532 1.074219 2.472656 2.46875 2.472656 1.398437 0 2.472656-1.078124 2.472656-2.472656v-1c0 1.394532-1.074219 2.46875-2.472656 2.46875-1.394531 0-2.46875-1.074218-2.46875-2.46875zm0 0" fill="#eee"/><path d="m25.777344 8.777344c-.828125.015625-1.488282.695312-1.476563 1.519531v5.742187c-.019531.140626-.019531.285157 0 .429688v6.730469c0 2.234375.582031 3.933593 1.671875 5.039062 1.09375 1.105469 2.542969 1.457031 3.796875 1.457031 1.25 0 2.703125-.351562 3.792969-1.457031.386719-.378906.535156-.9375.394531-1.457031s-.550781-.925781-1.074219-1.058594c-.523437-.136718-1.078124.023438-1.453124.410156-.394532.402344-.929688.566407-1.660157.566407-.734375 0-1.265625-.164063-1.664062-.566407-.394531-.402343-.808594-1.199218-.808594-2.933593v-5.449219h4.457031c.539063.003906 1.039063-.28125 1.308594-.746094s.269531-1.039062 0-1.503906c-.269531-.46875-.769531-.75-1.308594-.746094h-4.457031v-4.457031c.007813-.402344-.152344-.792969-.4375-1.078125-.289063-.289062-.679687-.445312-1.082031-.441406zm0 0" fill="#e0e0e0"/><path d="m25.777344 8.777344c-.828125.015625-1.488282.695312-1.476563 1.519531v1.023437c-.011719-.828124.648438-1.507812 1.476563-1.519531.402344-.003906.792968.152344 1.082031.4375.285156.289063.445313.675781.4375 1.082031v-1.023437c.007813-.402344-.152344-.792969-.4375-1.078125-.289063-.289062-.679687-.445312-1.082031-.441406zm1.519531 5.976562v1.023438h4.457031c.632813-.007813 1.203125.386718 1.421875.984375.167969-.460938.097657-.972657-.1875-1.375-.28125-.402344-.746093-.636719-1.234375-.632813zm-2.996094 1.285156c-.019531.140626-.019531.285157 0 .429688zm2.996094 7.160157v1.019531c0 1.738281.414063 2.535156.808594 2.9375.398437.402344.929687.566406 1.664062.566406.730469 0 1.265625-.164062 1.660157-.566406.359374-.371094.886718-.53125 1.390624-.425781.503907.109375.917969.46875 1.097657.953125.238281-.664063-.019531-1.40625-.617188-1.777344-.601562-.375-1.378906-.28125-1.871093.226562-.394532.402344-.929688.566407-1.660157.566407-.734375 0-1.265625-.164063-1.664062-.566407-.394531-.402343-.808594-1.199218-.808594-2.933593zm0 0" fill="#eee"/><g fill="none" stroke="#212121" stroke-linecap="round" stroke-linejoin="round" stroke-width="3" transform="matrix(.093759 0 0 .093759 0 20.158175)"><path d="m190.48181-36.475382c-31.996945 0-58.286101 26.289157-58.286101 58.327764v21.164645c0 31.996945 26.289156 58.286101 58.286101 58.286101 9.499093 0 18.456571-2.291448 26.372481-6.332729v75.034502c-.083325 5.74945 2.958051 11.082275 7.915911 13.998663 4.999523 2.874725 11.123938 2.874725 16.12346 0 4.95786-2.916388 7.999237-8.249213 7.915911-13.998663v-148.152519c0-32.038607-26.289156-58.327764-58.327763-58.327764zm0 31.955282c14.915242 0 26.372481 11.457239 26.372481 26.372482v21.164645c0 14.87358-11.457239 26.330819-26.372481 26.330819-14.87358 0-26.330819-11.457239-26.330819-26.330819v-21.164645c0-14.915243 11.457239-26.372482 26.330819-26.372482zm0 0"/><path d="m274.932079-121.38394c-8.83249.166651-15.873485 7.415959-15.748496 16.206786v61.244151c-.208314 1.499857-.208314 3.041376 0 4.582896v71.784811c0 23.831058 6.20774 41.954327 17.83163 53.744868 11.665553 11.790541 27.12241 15.540183 40.496133 15.540183 13.33206 0 28.83058-3.749642 40.45447-15.540183 4.124606-4.041281 5.707788-9.999045 4.207931-15.540183-1.499856-5.541137-5.874439-9.874057-11.457239-11.290588-5.5828-1.458194-11.498902.249976-15.49852 4.374582-4.207931 4.291257-9.915719 6.04109-17.706642 6.04109-7.832586 0-13.498711-1.749833-17.748305-6.04109-4.207932-4.291257-8.624177-12.790445-8.624177-31.288679v-58.119449h47.537127c5.749451.041662 11.082275-2.999714 13.957001-7.957574 2.874725-4.95786 2.874725-11.082275 0-16.040135-2.874726-4.999522-8.20755-7.999236-13.957001-7.957573h-47.537127v-47.537127c.083326-4.291257-1.624845-8.457526-4.666221-11.498902-3.083039-3.083039-7.249307-4.749547-11.540564-4.707884zm0 0"/></g></svg>

<?xml version="1.0" encoding="UTF-8"?>
<svg xmlns="http://www.w3.org/2000/svg" xmlns:xlink="http://www.w3.org/1999/xlink" width="48pt" height="48pt" viewBox="0 0 48 48" version="1.1">
<defs>
<radialGradient id="radial0" gradientUnits="userSpaceOnUse" cx="450.908936" cy="189.579361" fx="450.908936" fy="189.579361" r="21.166656" gradientTransform="matrix(0.000000261256,-0.117199,-0.210958,-0.000000152308,66.784728,95.392994)">
<stop offset="0" style="stop-color:rgb(0%,0%,0%);stop-opacity:0.313726;"/>
<stop offset="0.222222" style="stop-color:rgb(0%,0%,0%);stop-opacity:0.27451;"/>
<stop offset="1" style="stop-color:rgb(0%,0%,0%);stop-opacity:0;"/>
</radialGradient>
<radialGradient id="radial1" gradientUnits="userSpaceOnUse" cx="450.908936" cy="189.579361" fx="450.908936" fy="189.579361" r="21.166656" gradientTransform="matrix(-0.000000261256,0.117199,0.210958,0.000000152308,-19.155178,-11.291223)">
<stop offset="0" style="stop-color:rgb(0%,0%,0%);stop-opacity:0.313726;"/>
<stop offset="0.222222" style="stop-color:rgb(0%,0%,0%);stop-opacity:0.27451;"/>
<stop offset="1" style="stop-color:rgb(0%,0%,0%);stop-opacity:0;"/>
</radialGradient>
<radialGradient id="radial2" gradientUnits="userSpaceOnUse" cx="450.908936" cy="189.579361" fx="450.908936" fy="189.579361" r="21.166656" gradientTransform="matrix(-0.000000261256,-0.117199,0.210958,-0.000000152308,-19.155178,95.392994)">
<stop offset="0" style="stop-color:rgb(0%,0%,0%);stop-opacity:0.313726;"/>
<stop offset="0.222222" style="stop-color:rgb(0%,0%,0%);stop-opacity:0.27451;"/>
<stop offset="1" style="stop-color:rgb(0%,0%,0%);stop-opacity:0;"/>
</radialGradient>
<radialGradient id="radial3" gradientUnits="userSpaceOnUse" cx="450.908936" cy="189.579361" fx="450.908936" fy="189.579361" r="21.166656" gradientTransform="matrix(0.000000261256,0.117199,-0.210958,0.000000152308,66.784725,-11.291224)">
<stop offset="0" style="stop-color:rgb(0%,0%,0%);stop-opacity:0.313726;"/>
<stop offset="0.222222" style="stop-color:rgb(0%,0%,0%);stop-opacity:0.27451;"/>
<stop offset="1" style="stop-color:rgb(0%,0%,0%);stop-opacity:0;"/>
</radialGradient>
<linearGradient id="linear0" gradientUnits="userSpaceOnUse" x1="255.323059" y1="233.5" x2="255.323044" y2="254.666656" gradientTransform="matrix(0.0200401,0,0,0.093759,18.698079,20.158175)">
<stop offset="0" style="stop-color:rgb(0%,0%,0%);stop-opacity:0.27451;"/>
<stop offset="1" style="stop-color:rgb(0%,0%,0%);stop-opacity:0;"/>
</linearGradient>
<linearGradient id="linear1" gradientUnits="userSpaceOnUse" x1="254" y1="-168.666672" x2="254" y2="233.5" gradientTransform="matrix(1,0,0,1,0,0)">
<stop offset="0" style="stop-color:rgb(40.000001%,73.333335%,41.568628%);stop-opacity:1;"/>
<stop offset="1" style="stop-color:rgb(29.803923%,68.627453%,31.37255%);stop-opacity:1;"/>
</linearGradient>
</defs>
<g id="surface1">
<path style=" stroke:none;fill-rule:nonzero;fill:url(#radial0);" d="M 27.289062 42.050781 L 31.257812 42.050781 L 31.257812 40.066406 L 27.289062 40.066406 Z M 27.289062 42.050781 "/>
<path style=" stroke:none;fill-rule:nonzero;fill:url(#radial1);" d="M 20.339844 42.050781 L 16.371094 42.050781 L 16.371094 44.035156 L 20.339844 44.035156 Z M 20.339844 42.050781 "/>
<path style=" stroke:none;fill-rule:nonzero;fill:url(#radial2);" d="M 20.339844 42.050781 L 16.371094 42.050781 L 16.371094 40.066406 L 20.339844 40.066406 Z M 20.339844 42.050781 "/>
<path style=" stroke:none;fill-rule:nonzero;fill:url(#radial3);" d="M 27.289062 42.050781 L 31.257812 42.050781 L 31.257812 44.035156 L 27.289062 44.035156 Z M 27.289062 42.050781 "/>
<path style=" stroke:none;fill-rule:nonzero;fill:url(#linear0);" d="M 20.339844 41.554688 L 27.289062 41.554688 L 27.289062 44.035156 L 20.339844 44.035156 Z M 20.339844 41.554688 "/>
<path style="fill-rule:nonzero;fill:url(#linear1);stroke-width:3;stroke-linecap:round;stroke-linejoin:miter;stroke:rgb(20%,20%,20%);stroke-opacity:1;stroke-miterlimit:4;" d="M 254.017409 -168.671091 C 365.048473 -168.671091 455.081542 -78.638022 455.081542 32.434704 C 455.081542 143.465768 365.048473 233.498837 254.017409 233.498837 C 142.944683 233.498837 52.911614 143.465768 52.911614 32.434704 C 52.911614 -78.638022 142.944683 -168.671091 254.017409 -168.671091 Z M 254.017409 -168.671091 " transform="matrix(0.093759,0,0,0.093759,0,20.158175)"/>
<path style=" stroke:none;fill-rule:nonzero;fill:rgb(0%,0%,0%);fill-opacity:0.196078;" d="M 23.816406 42.050781 C 13.371094 42.050781 4.960938 33.640625 4.960938 23.199219 C 4.960938 23.136719 4.960938 23.074219 4.960938 23.011719 C 5.0625 33.371094 13.433594 41.679688 23.816406 41.679688 C 34.199219 41.679688 42.570312 33.371094 42.667969 23.011719 C 42.667969 23.074219 42.667969 23.136719 42.667969 23.199219 C 42.667969 33.640625 34.257812 42.050781 23.816406 42.050781 Z M 23.816406 42.050781 "/>
<path style=" stroke:none;fill-rule:nonzero;fill:rgb(100%,100%,100%);fill-opacity:0.392157;" d="M 23.816406 4.34375 C 13.371094 4.34375 4.960938 12.753906 4.960938 23.199219 C 4.960938 23.257812 4.960938 23.320312 4.960938 23.382812 C 5.0625 13.023438 13.433594 4.714844 23.816406 4.714844 C 34.199219 4.714844 42.570312 13.023438 42.667969 23.382812 C 42.667969 23.320312 42.667969 23.257812 42.667969 23.199219 C 42.667969 12.753906 34.257812 4.34375 23.816406 4.34375 Z M 23.816406 4.34375 "/>
<path style=" stroke:none;fill-rule:nonzero;fill:rgb(12.941177%,12.941177%,12.941177%);fill-opacity:1;" d="M 23.816406 4.203125 C 13.292969 4.203125 4.820312 12.675781 4.820312 23.199219 C 4.820312 33.71875 13.292969 42.191406 23.816406 42.191406 C 34.335938 42.191406 42.808594 33.71875 42.808594 23.199219 C 42.808594 12.675781 34.335938 4.203125 23.816406 4.203125 Z M 23.816406 4.484375 C 34.183594 4.484375 42.527344 12.828125 42.527344 23.199219 C 42.527344 33.566406 34.183594 41.910156 23.816406 41.910156 C 13.445312 41.910156 5.101562 33.566406 5.101562 23.199219 C 5.101562 12.828125 13.445312 4.484375 23.816406 4.484375 Z M 23.816406 4.484375 "/>
<path style=" stroke:none;fill-rule:nonzero;fill:rgb(0%,0%,0%);fill-opacity:0.235294;" d="M 17.859375 19.429688 C 16.464844 19.429688 15.390625 20.503906 15.390625 21.902344 L 15.390625 22.992188 C 15.390625 21.597656 16.464844 20.523438 17.859375 20.523438 C 19.257812 20.523438 20.332031 21.597656 20.332031 22.992188 L 20.332031 21.902344 C 20.332031 20.503906 19.257812 19.429688 17.859375 19.429688 Z M 12.394531 23.886719 L 12.394531 24.976562 C 12.394531 27.980469 14.859375 30.445312 17.859375 30.445312 C 18.75 30.445312 19.589844 30.230469 20.332031 29.847656 L 20.332031 28.757812 C 19.589844 29.136719 18.75 29.351562 17.859375 29.351562 C 14.859375 29.351562 12.394531 26.886719 12.394531 23.886719 Z M 20.332031 35.792969 L 20.332031 36.886719 C 20.324219 37.425781 20.609375 37.925781 21.074219 38.195312 C 21.542969 38.46875 22.117188 38.46875 22.585938 38.195312 C 23.050781 37.925781 23.335938 37.425781 23.328125 36.886719 L 23.328125 35.792969 C 23.335938 36.332031 23.050781 36.832031 22.585938 37.105469 C 22.117188 37.375 21.542969 37.375 21.074219 37.105469 C 20.609375 36.832031 20.324219 36.332031 20.332031 35.792969 Z M 20.332031 35.792969 "/>
<path style=" stroke:none;fill-rule:nonzero;fill:rgb(87.843138%,87.843138%,87.843138%);fill-opacity:1;" d="M 17.859375 16.738281 C 14.859375 16.738281 12.394531 19.203125 12.394531 22.207031 L 12.394531 24.191406 C 12.394531 27.191406 14.859375 29.65625 17.859375 29.65625 C 18.75 29.65625 19.589844 29.441406 20.332031 29.0625 L 20.332031 36.097656 C 20.324219 36.636719 20.609375 37.136719 21.074219 37.410156 C 21.542969 37.679688 22.117188 37.679688 22.585938 37.410156 C 23.050781 37.136719 23.335938 36.636719 23.328125 36.097656 L 23.328125 22.207031 C 23.328125 19.203125 20.863281 16.738281 17.859375 16.738281 Z M 17.859375 19.734375 C 19.257812 19.734375 20.332031 20.808594 20.332031 22.207031 L 20.332031 24.191406 C 20.332031 25.585938 19.257812 26.660156 17.859375 26.660156 C 16.464844 26.660156 15.390625 25.585938 15.390625 24.191406 L 15.390625 22.207031 C 15.390625 20.808594 16.464844 19.734375 17.859375 19.734375 Z M 17.859375 19.734375 "/>
<path style=" stroke:none;fill-rule:nonzero;fill:rgb(0%,0%,0%);fill-opacity:0.235294;" d="M 33.160156 16.496094 C 32.933594 17.074219 32.375 17.449219 31.753906 17.445312 L 27.296875 17.445312 L 27.296875 18.535156 L 31.753906 18.535156 C 32.25 18.542969 32.71875 18.300781 33 17.890625 C 33.28125 17.480469 33.34375 16.957031 33.160156 16.496094 Z M 24.300781 16.824219 C 24.28125 16.96875 24.28125 17.113281 24.300781 17.253906 Z M 24.300781 22.894531 L 24.300781 23.984375 C 24.300781 26.21875 24.882812 27.917969 25.972656 29.027344 C 27.066406 30.132812 28.515625 30.484375 29.769531 30.484375 C 31.019531 30.484375 32.472656 30.132812 33.5625 29.027344 C 33.988281 28.605469 34.121094 27.972656 33.90625 27.414062 C 33.828125 27.609375 33.710938 27.785156 33.5625 27.933594 C 32.472656 29.039062 31.019531 29.390625 29.769531 29.390625 C 28.515625 29.390625 27.066406 29.039062 25.972656 27.933594 C 24.882812 26.828125 24.300781 25.128906 24.300781 22.894531 Z M 24.300781 22.894531 "/>
<path style=" stroke:none;fill-rule:nonzero;fill:rgb(93.333334%,93.333334%,93.333334%);fill-opacity:1;" d="M 17.859375 16.738281 C 14.859375 16.738281 12.394531 19.203125 12.394531 22.207031 L 12.394531 23.207031 C 12.394531 20.203125 14.859375 17.738281 17.859375 17.738281 C 20.863281 17.738281 23.328125 20.203125 23.328125 23.207031 L 23.328125 22.207031 C 23.328125 19.203125 20.863281 16.738281 17.859375 16.738281 Z M 15.390625 24.191406 L 15.390625 25.191406 C 15.390625 26.585938 16.464844 27.664062 17.859375 27.664062 C 19.257812 27.664062 20.332031 26.585938 20.332031 25.191406 L 20.332031 24.191406 C 20.332031 25.585938 19.257812 26.660156 17.859375 26.660156 C 16.464844 26.660156 15.390625 25.585938 15.390625 24.191406 Z M 15.390625 24.191406 "/>
<path style=" stroke:none;fill-rule:nonzero;fill:rgb(87.843138%,87.843138%,87.843138%);fill-opacity:1;" d="M 25.777344 8.777344 C 24.949219 8.792969 24.289062 9.472656 24.300781 10.296875 L 24.300781 16.039062 C 24.28125 16.179688 24.28125 16.324219 24.300781 16.46875 L 24.300781 23.199219 C 24.300781 25.433594 24.882812 27.132812 25.972656 28.238281 C 27.066406 29.34375 28.515625 29.695312 29.769531 29.695312 C 31.019531 29.695312 32.472656 29.34375 33.5625 28.238281 C 33.949219 27.859375 34.097656 27.300781 33.957031 26.78125 C 33.816406 26.261719 33.40625 25.855469 32.882812 25.722656 C 32.359375 25.585938 31.804688 25.746094 31.429688 26.132812 C 31.035156 26.535156 30.5 26.699219 29.769531 26.699219 C 29.035156 26.699219 28.503906 26.535156 28.105469 26.132812 C 27.710938 25.730469 27.296875 24.933594 27.296875 23.199219 L 27.296875 17.75 L 31.753906 17.75 C 32.292969 17.753906 32.792969 17.46875 33.0625 17.003906 C 33.332031 16.539062 33.332031 15.964844 33.0625 15.5 C 32.792969 15.03125 32.292969 14.75 31.753906 14.753906 L 27.296875 14.753906 L 27.296875 10.296875 C 27.304688 9.894531 27.144531 9.503906 26.859375 9.21875 C 26.570312 8.929688 26.179688 8.773438 25.777344 8.777344 Z M 25.777344 8.777344 "/>
<path style=" stroke:none;fill-rule:nonzero;fill:rgb(93.333334%,93.333334%,93.333334%);fill-opacity:1;" d="M 25.777344 8.777344 C 24.949219 8.792969 24.289062 9.472656 24.300781 10.296875 L 24.300781 11.320312 C 24.289062 10.492188 24.949219 9.8125 25.777344 9.800781 C 26.179688 9.796875 26.570312 9.953125 26.859375 10.238281 C 27.144531 10.527344 27.304688 10.914062 27.296875 11.320312 L 27.296875 10.296875 C 27.304688 9.894531 27.144531 9.503906 26.859375 9.21875 C 26.570312 8.929688 26.179688 8.773438 25.777344 8.777344 Z M 27.296875 14.753906 L 27.296875 15.777344 L 31.753906 15.777344 C 32.386719 15.769531 32.957031 16.164062 33.175781 16.761719 C 33.34375 16.300781 33.273438 15.789062 32.988281 15.386719 C 32.707031 14.984375 32.242188 14.75 31.753906 14.753906 Z M 24.300781 16.039062 C 24.28125 16.179688 24.28125 16.324219 24.300781 16.46875 Z M 27.296875 23.199219 L 27.296875 24.21875 C 27.296875 25.957031 27.710938 26.753906 28.105469 27.15625 C 28.503906 27.558594 29.035156 27.722656 29.769531 27.722656 C 30.5 27.722656 31.035156 27.558594 31.429688 27.15625 C 31.789062 26.785156 32.316406 26.625 32.820312 26.730469 C 33.324219 26.839844 33.738281 27.199219 33.917969 27.683594 C 34.15625 27.019531 33.898438 26.277344 33.300781 25.90625 C 32.699219 25.53125 31.921875 25.625 31.429688 26.132812 C 31.035156 26.535156 30.5 26.699219 29.769531 26.699219 C 29.035156 26.699219 28.503906 26.535156 28.105469 26.132812 C 27.710938 25.730469 27.296875 24.933594 27.296875 23.199219 Z M 27.296875 23.199219 "/>
<path style="fill:none;stroke-width:3;stroke-linecap:round;stroke-linejoin:round;stroke:rgb(12.941177%,12.941177%,12.941177%);stroke-opacity:1;stroke-miterlimit:4;" d="M 190.48181 -36.475382 C 158.484865 -36.475382 132.195709 -10.186225 132.195709 21.852382 L 132.195709 43.017027 C 132.195709 75.013972 158.484865 101.303128 190.48181 101.303128 C 199.980903 101.303128 208.938381 99.01168 216.854291 94.970399 L 216.854291 170.004901 C 216.770966 175.754351 219.812342 181.087176 224.770202 184.003564 C 229.769725 186.878289 235.89414 186.878289 240.893662 184.003564 C 245.851522 181.087176 248.892899 175.754351 248.809573 170.004901 L 248.809573 21.852382 C 248.809573 -10.186225 222.520417 -36.475382 190.48181 -36.475382 Z M 190.48181 -4.5201 C 205.397052 -4.5201 216.854291 6.937139 216.854291 21.852382 L 216.854291 43.017027 C 216.854291 57.890607 205.397052 69.347846 190.48181 69.347846 C 175.60823 69.347846 164.150991 57.890607 164.150991 43.017027 L 164.150991 21.852382 C 164.150991 6.937139 175.60823 -4.5201 190.48181 -4.5201 Z M 190.48181 -4.5201 " transform="matrix(0.093759,0,0,0.093759,0,20.158175)"/>
<path style="fill:none;stroke-width:3;stroke-linecap:round;stroke-linejoin:round;stroke:rgb(12.941177%,12.941177%,12.941177%);stroke-opacity:1;stroke-miterlimit:4;" d="M 274.932079 -121.38394 C 266.099589 -121.217289 259.058594 -113.967981 259.183583 -105.177154 L 259.183583 -43.933003 C 258.975269 -42.433146 258.975269 -40.891627 259.183583 -39.350107 L 259.183583 32.434704 C 259.183583 56.265762 265.391323 74.389031 277.015213 86.179572 C 288.680766 97.970113 304.137623 101.719755 317.511346 101.719755 C 330.843406 101.719755 346.341926 97.970113 357.965816 86.179572 C 362.090422 82.138291 363.673604 76.180527 362.173747 70.639389 C 360.673891 65.098252 356.299308 60.765332 350.716508 59.348801 C 345.133708 57.890607 339.217606 59.598777 335.217988 63.723383 C 331.010057 68.01464 325.302269 69.764473 317.511346 69.764473 C 309.67876 69.764473 304.012635 68.01464 299.763041 63.723383 C 295.555109 59.432126 291.138864 50.932938 291.138864 32.434704 L 291.138864 -25.684745 L 338.675991 -25.684745 C 344.425442 -25.643083 349.758266 -28.684459 352.632992 -33.642319 C 355.507717 -38.600179 355.507717 -44.724594 352.632992 -49.682454 C 349.758266 -54.681976 344.425442 -57.68169 338.675991 -57.640027 L 291.138864 -57.640027 L 291.138864 -105.177154 C 291.22219 -109.468411 289.514019 -113.63468 286.472643 -116.676056 C 283.389604 -119.759095 279.223336 -121.425603 274.932079 -121.38394 Z M 274.932079 -121.38394 " transform="matrix(0.093759,0,0,0.093759,0,20.158175)"/>
</g>
</svg>
